X: 20392
T: PADDY NOW WONT YOU BE EASY
O: Irish air.
Q: "Jig time."
%R: slip-jig
B: W. Hamilton "Universal Tune-Book" Vol. 2 Glasgow 1846 p.39 #2
S: http://s3-eu-west-1.amazonaws.com/itma.dl.printmaterial/book_pdfs/hamiltonvol2web.pdf
Z: 2016 John Chambers <jc:trillian.mit.edu>
M: 9/8
L: 1/8
K: D
%%stretchstaff 0
% - - - - - - - - - - - - - - - - - - - - - - - - -
|:\
DDD dcd BAF | DDD dcd B2A |\
DDD dcd BAF | BEE EFA B2A :|\
|:\
ddd ded cBA | ded def g2e |
ddd ded cBA | BEE EFA B2A :|\
|:\
dDD dcd BAF | dDD dcd B2A |\
dDD dcd BAF | BEE EFA B2A :|
% - - - - - - - - - - - - - - - - - - - - - - - - -

%%sep 1 1 500
%%sep 1 1 500

